X:11
T:Ye Banks and Braes
% Nottingham Music Database
O:Scotland
M:3/4
L:1/4
K:G
D|\
"G"G2G|"D7/e"A3/2G/2A|"G/f"BdB|"D7/e"A G A|"G"B A G|"C"E2 D|"Am"DGG|\
"D7"A2D|
"G"G2G|"D7/e"A3/2G/2A|"G/f"BdB|"D7/e"AGA|"G"BAG|"C"E2 D|"D7"D G G/2A/2|\
"G"G2B||
"G"d2"C"e|"G"dBG|"G"d2"C"e|"G"dBG|"G"dBG|"G"dBG|"Am"e d B|"D7"A2D|
"G"G2G|"D7/e"A3/2G/2A|"G/f"BdB|"D7/e"AGA|"G"BAG|"C"E2 D|"D7"DGG|"G"G3||

